src/components/content/Icon/functional/vision.svg

<svg width="100" height="100" viewBox="0 0 100 100" fill="none" xmlns="http://www.w3.org/2000/svg">
<path d="M77.0901 48.812C70.6201 42.068 60.8261 38.2 50.2201 38.2C39.6141 38.2 29.8061 42.068 23.3361 48.812C23.2451 48.9067 23.1737 49.0185 23.1259 49.1409C23.0782 49.2632 23.0551 49.3938 23.0578 49.5252C23.0606 49.6565 23.0893 49.786 23.1422 49.9062C23.1951 50.0265 23.2711 50.1351 23.3661 50.226C23.4608 50.3169 23.5726 50.3883 23.695 50.4361C23.8173 50.4838 23.9479 50.5069 24.0793 50.5042C24.2106 50.5014 24.3401 50.4727 24.4604 50.4198C24.5806 50.3669 24.6892 50.2909 24.7801 50.196C30.8741 43.842 40.1481 40.198 50.2201 40.198C60.2921 40.198 69.5521 43.842 75.6461 50.196C75.7394 50.2933 75.8515 50.3708 75.9756 50.4238C76.0997 50.4767 76.2332 50.504 76.3681 50.504C76.6161 50.504 76.8661 50.412 77.0601 50.226C77.2513 50.0423 77.3619 49.7903 77.3675 49.5252C77.3731 49.2601 77.2734 49.0036 77.0901 48.812Z" fill="#0B301A"/>
<path d="M50.2121 42.914C47.5601 42.914 44.9661 43.8299 42.9061 45.4899C42.8037 45.5723 42.7186 45.674 42.6556 45.7893C42.5926 45.9046 42.553 46.0312 42.5391 46.1618C42.5252 46.2924 42.5372 46.4245 42.5744 46.5505C42.6116 46.6765 42.6734 46.7939 42.7561 46.8959C42.8384 46.9983 42.9401 47.0834 43.0554 47.1464C43.1707 47.2094 43.2973 47.249 43.4279 47.2629C43.5585 47.2768 43.6906 47.2648 43.8166 47.2276C43.9426 47.1904 44.06 47.1286 44.1621 47.0459C45.8921 45.6499 47.9841 44.9119 50.2121 44.9119C55.5281 44.9119 59.854 49.2379 59.854 54.5539C59.854 59.8699 55.5281 64.196 50.2121 64.196C44.8961 64.196 40.5701 59.8699 40.5701 54.5539C40.5701 52.7979 41.0461 51.08 41.9481 49.584C42.2341 49.11 42.0801 48.4959 41.6081 48.2119C41.4957 48.1441 41.371 48.0991 41.2412 48.0794C41.1114 48.0598 40.979 48.0659 40.8516 48.0975C40.7241 48.1291 40.6042 48.1855 40.4986 48.2635C40.393 48.3414 40.3037 48.4395 40.2361 48.5519C39.1461 50.3642 38.5708 52.4392 38.5721 54.5539C38.5721 60.9739 43.7941 66.196 50.2141 66.196C56.6341 66.196 61.8561 60.9739 61.8561 54.5539C61.8561 48.1339 56.6341 42.9119 50.2141 42.9119L50.2121 42.914Z" fill="#0B301A"/>
</svg>

<svg xmlns="http://www.w3.org/2000/svg" width="100" height="100" fill="none" viewBox="0 0 100 100"><path fill="#0b301a" d="M77.09 48.812C70.62 42.068 60.826 38.2 50.22 38.2s-20.414 3.868-26.884 10.612a1 1 0 1 0 1.444 1.384c6.094-6.354 15.368-9.998 25.44-9.998s19.332 3.644 25.426 9.998a1 1 0 0 0 1.414.03 1 1 0 0 0 .03-1.414"/><path fill="#0b301a" d="M50.212 42.914c-2.652 0-5.246.916-7.306 2.576a1 1 0 1 0 1.256 1.556 9.53 9.53 0 0 1 6.05-2.134c5.316 0 9.642 4.326 9.642 9.642s-4.326 9.642-9.642 9.642-9.642-4.326-9.642-9.642c0-1.756.476-3.474 1.378-4.97a.999.999 0 1 0-1.712-1.032 11.63 11.63 0 0 0-1.664 6.002c0 6.42 5.222 11.642 11.642 11.642s11.642-5.222 11.642-11.642-5.222-11.642-11.642-11.642z"/></svg>
